X:1
T:[ID 1-83b]
T:[ID 1-83b]
T:Bezeichnung standardisiert: Boure Bure In dieser Quelle auch als: Courant In dieser Quelle auch als: Tantz
T:Urheber unbekannt Datum in der hier transkribierten schriftlichen Quelle: vermutlich vor 1767
C:Urheber unbekannt
C:Datum in der hier transkribierten schriftlichen Quelle: vermutlich vor 1767
L:1/8
M:2/4
K:A
V:1 treble 
V:1
 aeae | cB/c/ A/c/e/g/ | aeae | cB/c/ A2 :| !fermata!eee=g | f/g/a/f/ d2 | fffa | g/f/a/g/ e2 | %8
 BBBc | d2 e2 | cB/A/ BA/G/ | A2 :| %12

